X: 23
T: No_125.krn
N: Derived from No_125.krn
%%abc-version 2.0
%%abcx-abcm2ps-target-version 5.9.1 (29 Sep 2008)
%%abc-creator hum2abc beta
%%abcx-conversion-date 2019/03/15 08:29:13
%%humdrum-veritas 3729763481
%%humdrum-veritas-data 4207731642
%%linebreak <none>
%%barnumbers 0
L: 1/8
M: 3/4
%%staves {1 2}
V: 1 clef=bass
V: 2 clef=bass
K: Db
[V:1] [K:clef=bass][M:3/4]F3G/F/ DB, | 
[V:2] [K:clef=bass][M:3/4]G,,G,, G,,G,, G,,G,, | 
[V:1] F3G/F/ DB, ||  
[V:2] z6 ||  
[V:1] [M:2/4]D3F/E/ | 
[V:2] [M:2/4]z4 | 
[V:1] DB, DB, | 
[V:2] z4 | 
[V:1] A,3/A,/A,2- | 
[V:2] z4 | 
[V:1] A,4 | 
[V:2] z4 | 
[V:1] F,2A,2 | 
[V:2] z4 | 
[V:1] B,2A,2 | 
[V:2] z4 | 
[V:1] A,/F,3/ F,3/F,/ | 
[V:2] z4 | 
[V:1] F,4- | 
[V:2] z4 | 
[V:1] F,4 | 
[V:2] z4 | 
[V:1] B,2D2- | 
[V:2] z4 | 
[V:1] D2FD | 
[V:2] z4 | 
[V:1] B,2(3!accent!DB,-B, | 
[V:2] z4 | 
[V:1] A,3/A,/A,2- | 
[V:2] z4 | 
[V:1] A,4 | 
[V:2] z4 | 
[V:1] F,2A,2 | 
[V:2] z4 | 
[V:1] B,2A,2 | 
[V:2] z4 | 
[V:1] (!accent!A,/F,3/) F,3/F,/ | 
[V:2] z4 | 
[V:1] F,4- | 
[V:2] z4 | 
[V:1] F,4 |]  
[V:2] z4 |]  



